T: Josephine Keegan's
M: 4/4
L: 1/8
K: Gmaj
E | DGBG dGBG | cBcd efga | bg (3gfg agef |\DGBG dGBG | cBcd efga | bg (3gfg ageg | dBAB G3 :|g/a/ | bg (3gfg agef | gedB AGEG |\bg (3gfg agef | gedB AGEG | DB, (3B,A,B, DEGA |\
